X: 34009
T: Reel Béatrice
R: reel
M: 4/4
K: Aminor
[A,A][B,B]|:[C2c2][A,A][Cc] [E2e2][Cc][Ee]|[Aa][Ee][Ee][Cc] [E2e2]AB|c2Ac e2ce|aeed e2ab|
c'bag gedc|Bdd^c d3f|e^def e=dcB|1 c2A^G A2[A,A][B,B]:|2 c2AG A2e2||
|:a2ga b2ge|fe^de a2g2|e^def e=d=dB|cdcB c2A2|
a2ga b2ge|fe^de a2g2|e^def e=dcB|1 c2A^G A2e2:|2 c2A^G A2=GB||
|:c~G3 EGce|c~G3 EGce|d~B3 GBdB|cc'ba geed|
c~G3 EGce|c~G3 EGce|d~B3 GBdB|1 cBcd c2GB:|2 cBcdc2 [A,A][B,B]||

